X: 21964
T: Kitty Lie Over
R: jig
M: 6/8
K: Dmajor
|:B|AFD DFA|Add B2 A|ABA F2 E|FEE E2 B|
AFD DF/G/A|Add B2 A|ABA F2 E|FDD D2:|
|:e|fdd dcd|fdd d2 e|f^ef d=ef|g2 f efg|
ff/e/d B2 d|Add F2 G|ABA F2 E|FDD D2:|

